!!!COM:	Bach, Johann Sebastian
!!!CDT:	1685/02/21/-1750/07/28/
!!!OTL@@DE:	Singt dem Herrn ein neues Lied
!!!SCT:	BWV 411
!!!PC#:	246
!!!AGN:	chorale
**kern	**kern	**kern	**kern
*ICvox	*ICvox	*ICvox	*ICvox
*Ibass	*Itenor	*Ialto	*Isoprn
*I"Bass	*I"Tenor	*I"Alto	*I"Soprano
*>[A,A,B]	*>[A,A,B]	*>[A,A,B]	*>[A,A,B]
*>norep[A,B]	*>norep[A,B]	*>norep[A,B]	*>norep[A,B]
*>A	*>A	*>A	*>A
*clefF4	*clefGv2	*clefG2	*clefG2
*k[f#]	*k[f#]	*k[f#]	*k[f#]
*G:	*G:	*G:	*G:
*M4/4	*M4/4	*M4/4	*M4/4
*met(c)	*met(c)	*met(c)	*met(c)
*MM100	*MM100	*MM100	*MM100
=1-	=1-	=1-	=1-
8GL	8BL	8dL	4g
8AJ	8cJ	8cJ	.
8BL	8dL	8BL	4g
8AJ	8cJ	8cJ	.
8GL	8BL	4d	4g
8AJ	8cJ	.	.
8GL	8BL	4d	4d
8F#J	8AJ	.	.
=2	=2	=2	=2
8EL	4B	16eLL	4g
.	.	16f#JJ	.
8DJ	.	4g	.
8CL	8eL	.	4a
8DJ	8dJ	8f#	.
2GG;	2d;	2g;	2b;
=3	=3	=3	=3
8GL	8BL	4d	8gL
8F#	8AJ	.	8a
8G	4B	8dL	8b
8EJ	.	8gJ	8cc#J
8F#L	4A	4f#	4dd
8EJ	.	.	.
8DL	[4d	4a	4ff#
16EL	.	.	.
16F#JJ	.	.	.
=4	=4	=4	=4
8GL	8dL]	8bL	2ee
8EJ	16c#L	8gJ	.
.	16BJJ	.	.
4A	4c#	8eL	.
.	.	16aL	.
.	.	16gJJ	.
2D;	2A;	2f#;	2dd;
=5:|!	=5:|!	=5:|!	=5:|!
*>B	*>B	*>B	*>B
4.cnX	4cnX	8gL	4ee
.	.	8eJ	.
.	4d	8f#L	4dd
8B	.	8g#J	.
4.A	8eL	4a	4cc
.	8d	.	.
.	8c	4e	4ee
8GnX	8BJ	.	.
=6	=6	=6	=6
4.F	8AL	8aL	4dd
.	8BJ	8g#J	.
.	8cL	[4a	4cc
8E	16dL	.	.
.	16eJJ	.	.
8DL	8fnXL	8aL]	2b
8BBJ	8dJ	16g#L	.
.	.	16f#JJ	.
4E	8BL	4g#X	.
.	16eL	.	.
.	16dJJ	.	.
=7	=7	=7	=7
2AA;	2c;	2e;	2a;
8AAL	4c	4e	4a
8C	.	.	.
8E	4B	4e	4g#
8DJ	.	.	.
=8	=8	=8	=8
8CL	4c	4e	4a
8BB	.	.	.
8AA	[4B	4e	4b
8GG#J	.	.	.
8AAL	8BL]	4e	4cc
8BB	16AL	.	.
.	16G#JJ	.	.
8C	[4A	4e	4cc
8DJ	.	.	.
=9	=9	=9	=9
2E;	4A]	2e;	2b;
.	4G#;	.	.
8EL	8BL	[4e	4gnX
8CJ	16cL	.	.
.	16BJJ	.	.
[4F	4A	8eL]	4a
.	.	16dL	.
.	.	16cJJ	.
=10	=10	=10	=10
8FL]	8GL	8d	4b
8EJ	8BJ	4g	.
8AL	16ALL	.	4cc
.	16BJ	.	.
8GJ	8cJ	16fLL	.
.	.	16eJJ	.
8FL	4.d	4a	4cc
8DJ	.	.	.
4G	.	4g	4b
.	8fnX	.	.
=11	=11	=11	=11
2C;	2e;	2g;	2cc;
8CL	4d	4g	4.dd
8DJ	.	.	.
4E	4A	4f#X	.
.	.	.	8cc
=12	=12	=12	=12
8GG	4G	4d	4b
4G	.	.	.
.	4A	4d	4a
8F#	.	.	.
8EL	8BL	8eL	8gL
8D	8cJ	8f#J	8aJ
8C	4d	[4g	4b
8BBJ	.	.	.
=13	=13	=13	=13
8CL	8eL	8gL]	2a
8AAJ	8cJ	16f#L	.
.	.	16eJJ	.
4D	8AL	4f#	.
.	16dL	.	.
.	16cJJ	.	.
2GG;	2B;	2d;	2g;
==	==	==	==
*-	*-	*-	*-
!!!hum2abc: -Q ''
!!!title: @{PC#}. @{OTL@@DE}
!!!YOR1: 371 vierstimmige Choralges&auml;nge von Johann Sebastian Bach, 
!!!YOR2: 4th ed. by Alfred D&ouml;rffel (Leipzig: Breitkopf und H&auml;rtel, 
!!!YOR2: c.1875). 178 pp. Plate "V.A.10".  reprint: J.S. Bach, 371 Four-Part 
!!!YOR4: Chorales (New York: Associated Music Publishers, Inc., c.1940).
!!!SMS: B&H, 4th ed, Alfred D&ouml;rffel, c.1875, plate V.A.10
!!!EED:  Craig Stuart Sapp
!!!EEV:  2009/05/22
